assets/images/icons/close.svg

<?xml version="1.0" encoding="UTF-8"?>
<svg width="16px" height="16px" viewBox="0 0 16 16" version="1.1" xmlns="http://www.w3.org/2000/svg" xmlns:xlink="http://www.w3.org/1999/xlink">
    <!-- Generator: Sketch 61 (89581) - https://sketch.com -->
    <title>Close</title>
    <desc>Created with Sketch.</desc>
    <g id="Symbols" stroke="none" stroke-width="1" fill="none" fill-rule="evenodd">
        <g id="Actions-/-Close-/-Close-icon" fill="#BABBF7" fill-rule="nonzero">
            <path d="M10.3797872,8 L15.7658713,2.61408415 C16.0773762,2.30258902 16.0773762,1.79709692 15.7658713,1.4851018 L14.5143518,0.23362135 C14.2028469,-0.0778737832 13.697339,-0.0778737832 13.3853341,0.23362135 L7.99975,5.62003719 L2.61366584,0.234121342 C2.30216097,-0.077373791 1.79665307,-0.077373791 1.4846482,0.234121342 L0.23362865,1.4851018 C-0.0778762168,1.79659693 -0.0778762168,2.30208903 0.23362865,2.61408415 L5.61971281,8 L0.23362865,13.3859158 C-0.0778762168,13.697411 -0.0778762168,14.2029031 0.23362865,14.5148982 L1.48514821,15.7663787 C1.79665307,16.0778738 2.30216097,16.0778738 2.61416585,15.7663787 L7.99975,10.3799628 L13.3858342,15.7658787 C13.697339,16.0773738 14.2028469,16.0773738 14.5148518,15.7658787 L15.7663713,14.5143982 C16.0778762,14.2029031 16.0778762,13.697411 15.7663713,13.3854159 L10.3797872,8 Z" id="Close"></path>
        </g>
    </g>
</svg>

<svg width="16" height="16" xmlns="http://www.w3.org/2000/svg">
  <path d="M10.38 8l5.386-5.386a.799.799 0 000-1.129L14.514.234a.799.799 0 00-1.129 0L8 5.62 2.614.234a.799.799 0 00-1.13 0L.235 1.485a.799.799 0 000 1.13L5.62 8 .234 13.386a.799.799 0 000 1.129l1.251 1.251a.799.799 0 001.13 0L8 10.38l5.386 5.386a.799.799 0 001.129 0l1.251-1.252a.799.799 0 000-1.129L10.38 8z" fill="#BABBF7" fill-rule="nonzero"/>
</svg>
